Images/Client4.svg

<svg width="170" height="90" viewBox="0 0 170 90" fill="none" xmlns="http://www.w3.org/2000/svg">
<rect x="0.5" y="0.5" width="169" height="89" rx="3.5" stroke="#AFB1B8"/>
<path d="M57.402 36.8306H57.3992C55.1369 36.8306 53.303 38.6177 53.303 40.8223V40.8249C53.303 43.0295 55.1369 44.8167 57.3992 44.8167H57.402C59.6643 44.8167 61.4982 43.0295 61.4982 40.8249V40.8223C61.4982 38.6177 59.6643 36.8306 57.402 36.8306Z" fill="#AFB1B8"/>
<path d="M87.6368 35.5545C87.6304 32.4924 86.3795 29.5575 84.1579 27.3921C81.9363 25.2266 78.925 24.007 75.7828 24V24C72.6397 24.0056 69.6269 25.2246 67.4041 27.3902C65.1814 29.5558 63.9298 32.4915 63.9233 35.5545V52.4402C63.9233 52.4402 87.6341 49.8667 87.6368 35.5571V35.5545Z" fill="#AFB1B8"/>
<path d="M45 57.9823C45.0057 60.1129 45.8766 62.1547 47.4223 63.6615C48.968 65.1683 51.0629 66.0177 53.2492 66.0239C55.4351 66.0177 57.5296 65.1687 59.0752 63.6625C60.6209 62.1562 61.492 60.1151 61.4985 57.9849V46.2356C61.4985 46.2356 45 48.0276 45 57.9823ZM53.2492 60.0874C52.822 60.0874 52.4043 59.964 52.0491 59.7326C51.6938 59.5013 51.417 59.1726 51.2535 58.7879C51.09 58.4032 51.0472 57.98 51.1305 57.5716C51.2139 57.1632 51.4196 56.7881 51.7217 56.4937C52.0239 56.1993 52.4088 55.9988 52.8278 55.9176C53.2468 55.8364 53.6812 55.8781 54.0759 56.0374C54.4706 56.1967 54.808 56.4665 55.0454 56.8127C55.2827 57.1589 55.4094 57.5659 55.4094 57.9823C55.4105 58.2594 55.3554 58.534 55.2473 58.7903C55.1392 59.0466 54.9803 59.2796 54.7796 59.476C54.5789 59.6723 54.3404 59.828 54.0778 59.9343C53.8152 60.0406 53.5336 60.0953 53.2492 60.0953V60.0874Z" fill="#AFB1B8"/>
<path d="M70.0891 58.7812H68.4016V60.5244H67.5227V56.2588H70.3V56.9707H68.4016V58.0723H70.0891V58.7812ZM74.3137 58.4883C74.3137 58.9082 74.2395 59.2764 74.0911 59.5928C73.9426 59.9092 73.7297 60.1533 73.4524 60.3252C73.177 60.4971 72.8606 60.583 72.5032 60.583C72.1497 60.583 71.8342 60.498 71.5569 60.3281C71.2795 60.1582 71.0647 59.916 70.9124 59.6016C70.76 59.2852 70.6829 58.9219 70.6809 58.5117V58.3008C70.6809 57.8809 70.7561 57.5117 70.9065 57.1934C71.0588 56.873 71.2727 56.6279 71.5481 56.458C71.8254 56.2861 72.1418 56.2002 72.4973 56.2002C72.8528 56.2002 73.1682 56.2861 73.4436 56.458C73.7209 56.6279 73.9348 56.873 74.0852 57.1934C74.2375 57.5117 74.3137 57.8799 74.3137 58.2979V58.4883ZM73.4231 58.2949C73.4231 57.8477 73.343 57.5078 73.1829 57.2754C73.0227 57.043 72.7942 56.9268 72.4973 56.9268C72.2024 56.9268 71.9749 57.042 71.8147 57.2725C71.6545 57.501 71.5735 57.8369 71.5715 58.2803V58.4883C71.5715 58.9238 71.6516 59.2617 71.8118 59.502C71.9719 59.7422 72.2024 59.8623 72.5032 59.8623C72.7981 59.8623 73.0247 59.7471 73.1829 59.5166C73.3411 59.2842 73.4211 58.9463 73.4231 58.5029V58.2949ZM77.1643 59.4053C77.1643 59.2393 77.1057 59.1123 76.9885 59.0244C76.8713 58.9346 76.6604 58.8408 76.3557 58.7432C76.051 58.6436 75.8098 58.5459 75.6321 58.4502C75.1477 58.1885 74.9055 57.8359 74.9055 57.3926C74.9055 57.1621 74.97 56.957 75.0989 56.7773C75.2297 56.5957 75.4163 56.4541 75.6584 56.3525C75.9026 56.251 76.176 56.2002 76.4788 56.2002C76.7834 56.2002 77.0549 56.2559 77.2932 56.3672C77.5315 56.4766 77.7161 56.6318 77.8469 56.833C77.9797 57.0342 78.0461 57.2627 78.0461 57.5186H77.1672C77.1672 57.3232 77.1057 57.1719 76.9827 57.0645C76.8596 56.9551 76.6868 56.9004 76.4641 56.9004C76.2493 56.9004 76.0823 56.9463 75.9631 57.0381C75.844 57.1279 75.7844 57.2471 75.7844 57.3955C75.7844 57.5342 75.8538 57.6504 75.9924 57.7441C76.1331 57.8379 76.3391 57.9258 76.6106 58.0078C77.1106 58.1582 77.4749 58.3447 77.7034 58.5674C77.9319 58.79 78.0461 59.0674 78.0461 59.3994C78.0461 59.7686 77.9065 60.0586 77.6272 60.2695C77.3479 60.4785 76.9719 60.583 76.4993 60.583C76.1711 60.583 75.8723 60.5234 75.6028 60.4043C75.3333 60.2832 75.1272 60.1182 74.9846 59.9092C74.844 59.7002 74.7737 59.458 74.7737 59.1826H75.6555C75.6555 59.6533 75.9368 59.8887 76.4993 59.8887C76.7083 59.8887 76.8713 59.8467 76.9885 59.7627C77.1057 59.6768 77.1643 59.5576 77.1643 59.4053ZM81.8547 56.9707H80.5481V60.5244H79.6692V56.9707H78.3801V56.2588H81.8547V56.9707ZM84.925 58.6758H83.2375V59.8184H85.218V60.5244H82.3586V56.2588H85.2122V56.9707H83.2375V57.9873H84.925V58.6758ZM87.3127 58.9629H86.6125V60.5244H85.7336V56.2588H87.3186C87.8225 56.2588 88.2112 56.3711 88.4846 56.5957C88.7581 56.8203 88.8948 57.1377 88.8948 57.5479C88.8948 57.8389 88.8313 58.082 88.7043 58.2773C88.5793 58.4707 88.3889 58.625 88.1331 58.7402L89.0559 60.4834V60.5244H88.1125L87.3127 58.9629ZM86.6125 58.251H87.3215C87.5422 58.251 87.7131 58.1953 87.8342 58.084C87.9553 57.9707 88.0159 57.8154 88.0159 57.6182C88.0159 57.417 87.9583 57.2588 87.843 57.1436C87.7297 57.0283 87.5549 56.9707 87.3186 56.9707H86.6125V58.251ZM91.9387 59.0215V60.5244H91.0598V56.2588H92.7239C93.0442 56.2588 93.3254 56.3174 93.5676 56.4346C93.8118 56.5518 93.9993 56.7188 94.1301 56.9355C94.261 57.1504 94.3264 57.3955 94.3264 57.6709C94.3264 58.0889 94.1829 58.4189 93.8958 58.6611C93.6106 58.9014 93.2151 59.0215 92.7092 59.0215H91.9387ZM91.9387 58.3096H92.7239C92.9563 58.3096 93.1331 58.2549 93.2542 58.1455C93.3772 58.0361 93.4387 57.8799 93.4387 57.6768C93.4387 57.4678 93.3772 57.2988 93.2542 57.1699C93.1311 57.041 92.9612 56.9746 92.7444 56.9707H91.9387V58.3096ZM97.4993 58.6758H95.8118V59.8184H97.7922V60.5244H94.9329V56.2588H97.7864V56.9707H95.8118V57.9873H97.4993V58.6758ZM101.577 56.9707H100.271V60.5244H99.3918V56.9707H98.1028V56.2588H101.577V56.9707ZM104.648 58.6758H102.96V59.8184H104.941V60.5244H102.081V56.2588H104.935V56.9707H102.96V57.9873H104.648V58.6758ZM107.035 58.9629H106.335V60.5244H105.456V56.2588H107.041C107.545 56.2588 107.934 56.3711 108.207 56.5957C108.481 56.8203 108.617 57.1377 108.617 57.5479C108.617 57.8389 108.554 58.082 108.427 58.2773C108.302 58.4707 108.112 58.625 107.856 58.7402L108.779 60.4834V60.5244H107.835L107.035 58.9629ZM106.335 58.251H107.044C107.265 58.251 107.436 58.1953 107.557 58.084C107.678 57.9707 107.739 57.8154 107.739 57.6182C107.739 57.417 107.681 57.2588 107.566 57.1436C107.452 57.0283 107.278 56.9707 107.041 56.9707H106.335V58.251ZM111.5 59.4053C111.5 59.2393 111.442 59.1123 111.324 59.0244C111.207 58.9346 110.996 58.8408 110.692 58.7432C110.387 58.6436 110.146 58.5459 109.968 58.4502C109.484 58.1885 109.241 57.8359 109.241 57.3926C109.241 57.1621 109.306 56.957 109.435 56.7773C109.566 56.5957 109.752 56.4541 109.994 56.3525C110.239 56.251 110.512 56.2002 110.815 56.2002C111.119 56.2002 111.391 56.2559 111.629 56.3672C111.867 56.4766 112.052 56.6318 112.183 56.833C112.316 57.0342 112.382 57.2627 112.382 57.5186H111.503C111.503 57.3232 111.442 57.1719 111.319 57.0645C111.196 56.9551 111.023 56.9004 110.8 56.9004C110.585 56.9004 110.418 56.9463 110.299 57.0381C110.18 57.1279 110.12 57.2471 110.12 57.3955C110.12 57.5342 110.19 57.6504 110.328 57.7441C110.469 57.8379 110.675 57.9258 110.947 58.0078C111.447 58.1582 111.811 58.3447 112.039 58.5674C112.268 58.79 112.382 59.0674 112.382 59.3994C112.382 59.7686 112.242 60.0586 111.963 60.2695C111.684 60.4785 111.308 60.583 110.835 60.583C110.507 60.583 110.208 60.5234 109.939 60.4043C109.669 60.2832 109.463 60.1182 109.321 59.9092C109.18 59.7002 109.11 59.458 109.11 59.1826H109.991C109.991 59.6533 110.273 59.8887 110.835 59.8887C111.044 59.8887 111.207 59.8467 111.324 59.7627C111.442 59.6768 111.5 59.5576 111.5 59.4053Z" fill="#AFB1B8"/>
</svg>

<svg width="170" height="90" fill="none" xmlns="http://www.w3.org/2000/svg"><rect x=".5" y=".5" width="169" height="89" rx="3.5" stroke="#AFB1B8"/><path d="M57.402 36.83h-.003c-2.262 0-4.096 1.788-4.096 3.992v.003c0 2.204 1.834 3.992 4.096 3.992h.003c2.262 0 4.096-1.788 4.096-3.992v-.003c0-2.204-1.834-3.991-4.096-3.991zM87.637 35.554c-.007-3.062-1.258-5.997-3.48-8.162-2.22-2.165-5.232-3.385-8.374-3.392-3.143.006-6.156 1.225-8.379 3.39-2.223 2.166-3.474 5.102-3.48 8.164V52.44s23.71-2.573 23.713-16.883v-.003zM45 57.982a7.96 7.96 0 002.422 5.68 8.384 8.384 0 005.827 2.362 8.384 8.384 0 005.826-2.361 7.96 7.96 0 002.423-5.678v-11.75S45 48.029 45 57.983zm8.25 2.105a2.2 2.2 0 01-1.2-.354 2.117 2.117 0 01-.796-.945 2.056 2.056 0 01-.123-1.216 2.09 2.09 0 01.59-1.078 2.179 2.179 0 011.107-.576c.419-.082.853-.04 1.248.12.395.159.732.429.97.775a2.068 2.068 0 01.201 1.977c-.108.257-.267.49-.467.686-.201.196-.44.352-.702.458a2.21 2.21 0 01-.829.161v-.008zM70.09 58.781h-1.688v1.743h-.88V56.26H70.3v.712h-1.898v1.101h1.687v.71zm4.224-.293c0 .42-.074.788-.223 1.105-.148.316-.361.56-.639.732a1.755 1.755 0 01-.949.258 1.694 1.694 0 01-1.59-.981 2.511 2.511 0 01-.232-1.09V58.3c0-.42.075-.79.225-1.108.153-.32.367-.565.642-.735.277-.172.594-.258.95-.258.355 0 .67.086.946.258.277.17.49.415.641.735.153.319.229.687.229 1.105v.19zm-.89-.193c0-.447-.081-.787-.241-1.02a.783.783 0 00-.686-.348.782.782 0 00-.682.346c-.16.228-.242.564-.243 1.007v.208c0 .436.08.774.24 1.014.16.24.39.36.691.36a.775.775 0 00.68-.345c.158-.233.238-.57.24-1.014v-.208zm3.74 1.11a.447.447 0 00-.175-.38c-.118-.09-.329-.184-.633-.282a4.56 4.56 0 01-.724-.293c-.484-.262-.727-.614-.727-1.057 0-.23.065-.436.194-.616.13-.181.317-.323.56-.425.244-.101.517-.152.82-.152.304 0 .576.056.814.167.238.11.423.265.554.466.133.201.2.43.2.686h-.88c0-.196-.061-.347-.184-.454-.123-.11-.296-.165-.519-.165-.215 0-.382.046-.5.138a.426.426 0 00-.18.358c0 .138.07.254.208.348.141.094.347.182.619.264.5.15.864.337 1.092.56.229.222.343.5.343.831 0 .37-.14.66-.419.87-.28.21-.655.314-1.128.314-.328 0-.627-.06-.896-.179a1.439 1.439 0 01-.618-.495 1.27 1.27 0 01-.211-.726h.882c0 .47.28.706.843.706.21 0 .372-.042.49-.126a.418.418 0 00.175-.358zm4.69-2.434h-1.306v3.553h-.879v-3.553H78.38v-.712h3.475v.712zm3.071 1.705h-1.688v1.142h1.981v.706h-2.86V56.26h2.854v.712h-1.975v1.016h1.688v.689zm2.388.287h-.7v1.561h-.88V56.26h1.586c.504 0 .892.112 1.166.337.273.224.41.542.41.952 0 .29-.064.534-.19.73a1.282 1.282 0 01-.572.462l.923 1.743v.041h-.944l-.8-1.561zm-.7-.712h.709c.22 0 .391-.056.512-.167a.607.607 0 00.182-.466c0-.201-.058-.36-.173-.474-.113-.116-.288-.173-.524-.173h-.707v1.28zm5.326.77v1.503h-.88V56.26h1.665c.32 0 .601.058.844.176.244.117.431.284.562.5.131.215.196.46.196.736 0 .418-.143.748-.43.99-.285.24-.68.36-1.187.36h-.77zm0-.711h.785c.232 0 .41-.055.53-.165.123-.109.185-.265.185-.468a.704.704 0 00-.185-.507c-.123-.129-.293-.195-.51-.2h-.805v1.34zm5.56.366h-1.687v1.142h1.98v.706h-2.86V56.26h2.854v.712h-1.974v1.016h1.687v.689zm4.078-1.705h-1.306v3.553h-.88v-3.553h-1.288v-.712h3.474v.712zm3.071 1.705h-1.688v1.142h1.981v.706h-2.86V56.26h2.854v.712h-1.975v1.016h1.688v.689zm2.387.287h-.7v1.561h-.879V56.26h1.585c.504 0 .893.112 1.166.337.274.224.41.542.41.952 0 .29-.063.534-.19.73a1.28 1.28 0 01-.571.462l.923 1.743v.041h-.944l-.8-1.561zm-.7-.712h.709c.221 0 .392-.056.513-.167a.607.607 0 00.182-.466c0-.201-.058-.36-.173-.474-.114-.116-.288-.173-.525-.173h-.706v1.28zm5.165 1.154a.445.445 0 00-.176-.38c-.117-.09-.328-.184-.632-.282a4.566 4.566 0 01-.724-.293c-.484-.262-.727-.614-.727-1.057 0-.23.065-.436.194-.616.131-.181.317-.323.559-.425.245-.101.518-.152.821-.152.304 0 .576.056.814.167.238.11.423.265.554.466.133.201.199.43.199.686h-.879c0-.196-.061-.347-.184-.454-.123-.11-.296-.165-.519-.165-.215 0-.382.046-.501.138a.426.426 0 00-.179.358c0 .138.07.254.208.348.141.094.347.182.619.264.5.15.864.337 1.092.56.229.222.343.5.343.831 0 .37-.14.66-.419.87-.279.21-.655.314-1.128.314a2.19 2.19 0 01-.896-.179 1.432 1.432 0 01-.618-.495 1.268 1.268 0 01-.211-.726h.881c0 .47.282.706.844.706.209 0 .372-.042.489-.126a.417.417 0 00.176-.358z" fill="#AFB1B8"/></svg>
